app/dist/common/images/pyxis-oncology.svg

<svg height="18" viewBox="0 0 18 18" width="18" xmlns="http://www.w3.org/2000/svg"><path d="m0 9a9 9 0 1 1 18 0 9 9 0 0 1 -18 0z" fill="#f0f3fa"/><path d="m7.51 7.66 1.12-1.19-1.5-2.34a.28.28 0 0 0 -.23-.13h-1.62a.26.26 0 0 0 -.28.27c0 .05.02.1.05.14l2.28 3.59c.05-.12.1-.24.18-.34zm3.07 2.71-1.08 1.16 1.48 2.34c.05.08.14.13.23.13h1.5c.15.02.3-.1.29-.27 0-.05-.02-.1-.05-.14l-2.18-3.59c-.06.13-.1.26-.2.37z" fill="#0f426b"/><path d="m10.5 7-.66 1.25.59 1.28 2.57-6.53-4.74 5h1.24z" fill="#e00d7b"/><path d="m9.3 8.5h-1.3l-3 6.5 5-5z" fill="#0f426b"/></svg>

<!-- by TradingView --><svg width="18" height="18" viewBox="0 0 18 18" xmlns="http://www.w3.org/2000/svg"><path d="M0 9a9 9 0 1 1 18 0A9 9 0 0 1 0 9Z" fill="#F0F3FA"/><path d="m7.51 7.66 1.12-1.19-1.5-2.34A.28.28 0 0 0 6.9 4H5.28a.26.26 0 0 0-.28.27c0 .05.02.1.05.14L7.33 8c.05-.12.1-.24.18-.34ZM10.58 10.37 9.5 11.53l1.48 2.34c.05.08.14.13.23.13h1.5c.15.02.3-.1.29-.27 0-.05-.02-.1-.05-.14L10.77 10c-.06.13-.1.26-.2.37Z" fill="#0F426B"/><path d="m10.5 7-.66 1.25.59 1.28L13 3 8.26 8H9.5l1-1Z" fill="#E00D7B"/><path d="M9.3 8.5H8L5 15l5-5-.7-1.5Z" fill="#0F426B"/></svg>
